X:2
T:Schottis in A-dur (Trad.)
R:schottis
N:transcribed years back now
D:from Rojas Jonas "Happy Feet" album (Track A4)
Z:1998 Brian Wilson
M:2/4
L:1/16
K:A
P:A
|: A>cea g2 {fg}f2 | e>c A<c e2 {cB}c2 | d2 d2 E2 GB | [1 A2Ac e4 :| [2 A2c2 A4 ||
P:B
|: "pizz"e2A2 e2A2 | "arco"{e}e>f e<d c2 Ac | d2 d2 E2 GB | [1 A2Ac e4 :| [2 A2c2 A4 ||
P:A harmony
|: c>def e2 {dc}d2 | c>A E<A c2 {AG}A2 | G2 G2 B,2 B,2 | [1 C2EA c4 :| [2 C2D2 C4 ||
P:B harmony
|: "pizz"e2A2 e2A2 | "arco"{B}c>d c<B A2 A2 | G2 G2 B,2 B,2 | [1 C2EA c4 :| [2 C2D2 C4 ||
